X: 2130
Q: "Strathspey."
M: C
L: 1/8
K: G
ug |:\
vd<GB<G c<=FAu>g | d<GB<G d<GB<uG |\
c<aB<g c<=FA<c | vd>vcuB>uA d<GB<g :|\
[1 c<aB<g c<=FA>c | vd>vcuB>uA d<GB<g |\
[2 (3cac (3BgB c<=FA>c | d>cB>A d<GB<g |]


